X:1
T:Hosianna, gelobet sei, der da kommt
T:Hosianna, gelobet sei, der da kommt
T:Herrnhuter Hosianna - für zwei Chöre
T:Christian Friedrich Gregor (1723-1801)
T:Mk 11, 10b u. 9b
C:Christian Gregor (1723-1801)
Z:Markus 1, 9b, 10b
%%score [ ( 1 2 ) ( 3 4 5 ) ] [ ( 6 7 ) ( 8 9 ) ]
L:1/8
Q:1/2=80
M:4/2
K:A
V:1 treble nm="F"
V:2 treble 
V:3 bass nm="M"
V:4 bass 
V:5 bass 
V:6 treble nm="F"
V:7 treble 
V:8 bass nm="M"
V:9 bass 
V:1
 A4 E4 A4 E2 E2 | A4 A2 A2 B4 B4 | c4 z4 z8 | z16 | c4 (B2 A2) B4 A4 | z16 | e4 (d2 c2) d4 c4 | %7
w: Ho- si- an- na, ge-|lo- bet sei, der da|kommt,||ho- si- * an- na,||ho- si- * an- na,|
 z8 z4 z2 A2 | B4 B2 B2 B4 B4 | B4 z4 z4 ^d2 d2 | e4 A4 G2 G2 F4 | E4 z4 z8 | z4 e2 ^d2 e4 B2 A2 | %13
w: ge-|lo- bet sei, der da|kommt, der da|kommt im Na- men des|Herrn,|ho- si- an- na, ge-|
 G4 E2 G2 A4 B4 | c4 z4 z8 | z16 | z4 B2 B2 c4 B4 | z4 B2 B2 c4 B4 | z4 B2 B2 c4 B4 | %19
w: lo- bet sei, der da|kommt,||ho- si- an- na,|ho- si- an- na,|ho- si- an- na|
 z8 z4 ^d2 d2 | e8 E4 z4 || A4 B4 c4 A4 | z16 | c4 d4 e4 c4 | %24
w: in der|Hö- he,|ho- si- an- na,||ho- si- an- na,|
 z8 z4[Q:1/2=80] e2[Q:1/2=78]"^.2" c2 | %25
w: ho- si-|
[Q:1/2=76]"^.4" d2[Q:1/2=74]"^.6" B2[Q:1/2=72]"^.9" c2[Q:1/2=71]"^.1" A2[Q:1/2=69]"^.3" !fermata!B8[Q:1/2=65] | %26
w: an- na in der Hö-|
[Q:1/2=62]"^.1" !fermata!A8 |] %27
w: he!|
V:2
 A4 E4 A4 E2 E2 | E4 C2 C2 F4 E4 | E4 x4 x8 | x16 | E4 (D2 C2) D4 C4 | x16 | A4 (G2 A2) E4 E4 | %7
 x8 x4 x2 E2 | G4 E2 E2 E4 ^D4 | G4 x4 x4 F2 F2 | E4 F4 E2 E2 ^D4 | E4 x4 x8 | x4 E2 ^D2 E4 F2 F2 | %13
 E4 E2 E2 E4 G4 | A4 x4 x8 | x16 | x4 E2 E2 E4 E4 | x4 E2 E2 E4 E4 | x4 E2 E2 E4 E4 | x8 x4 F2 A2 | %20
 G8 E4 x4 || C4 E4 E4 C4 | x16 | E4 F4 G4 E4 | x8 x4 A2 A2 | G2 G2 A2 A2 (A4"^.7" G4) | A8 |] %27
V:3
 A,4 E,4 A,4 E,2 G,2 | A,4 A,2 A,2 A,4 G,4 | A,4 z4 z8 | z16 | A,4 (G,2 A,2) G,4 A,4 | z16 | %6
 C4 (B,2 A,2) G,4 A,4 | z8 z4 z2 C2 | B,4 G,2 G,2 B,4 B,4 | E4 z4 z4 A,2 A,2 | G,4 C4 B,2 B,2 A,4 | %11
 G,4 z4 z8 | z4 E2 ^D2 E4 D2 B,2 | B,4 G,2 B,2 A,4 =D4 | E4 z4 z8 | z16 | z4 G,2 G,2 A,4 G,4 | %17
 z4 G,2 G,2 A,4 G,4 | z4 G,2 G,2 A,4 G,4 | z8 z4 B,2 B,2 | B,8 G,4"_Orgel" z4 || E,4 G,4 A,4 A,4 | %22
 z16 | A,4 A,4 B,4 A,4 | z8 z4 C2 C2 | B,2 D2 C2 =C2 (B,4 D4) | C8 |] %27
V:4
 A,4 E,4 A,4 E,2 D,2 | C,4 A,,2 F,2 D,4 E,4 | A,,4 x4 x8 | x16 | A,4 A,,4 E,4 A,,4 | x16 | %6
 A,4 A,,4 E,4 A,,4 | x8 x4 x2 A,,2 | E,4 E,2 E,2 G,,4 B,,4 | E,4 x4 x4 B,,2 B,,2 | %10
 E,4 A,,4 B,,2 B,,2 B,,4 | E,4 x4 x8 | x4 E,2 ^D,2 E,4 B,,2 D,2 | E,4 =D,2 D,2 C,4 B,,4 | %14
 A,,4 x4 x8 | x16 | x4 E,2 E,2 A,4 E,4 | x4 E,2 E,2 A,4 E,4 | x4 E,2 E,2 A,4 E,4 | %19
 x8 x4 B,,2 B,,2 | E,8 E,4 x4 || A,,4 E,4 A,4 A,,4 | x16 | A,4 F,4 E,4 A,,4 | x8 x4 A,,2 A,,2 | %25
 E,2 E,2 A,,2 ^D,2 E,8 | A,,8 |] %27
V:5
 x16 | x16 | x16 | x16 | x16 | x16 | x16 | x16 | x16 | x16 | x16 | x16 | x16 | x16 | x16 | x16 | %16
 x16 | x16 | x16 | x16 | x8 x4 E,=D,C,B,, || x16 | x16 | x16 | x16 | x16 | x8 |] %27
V:6
 z16 | z16 | A4 E4 A4 E2 E2 | A4 A2 A2 B4 B4 | c4 z4 z8 | c4 (B2 A2) B4 A4 | z16 | %7
w: ||Ho- si- an- na, ge-|lo- bet sei, der da|kommt,|ho- si- * an- na,||
 e4 (d2 c2) d4 c4 | z8 z4 z2 ^d2 | e4 B2 B2 B4 B4 | B4 z4 z4 ^d2 d2 | e4 A4 G2 G2 F4 | E4 z4 z8 | %13
w: ho- si- * an- na,|ge-|lo- bet sei, der da|kommt, der da|kommt im Na- men des|Herrn|
 z16 | z4 A2 G2 A4 E2 d2 | c4 A2 B2 c4 ^d4 | e4 z4 z4 E2 E2 | e4 E4 z4 E2 E2 | e4 E4 z4 E2 E2 | %19
w: |ho- si- an- na, ge-|lo- bet sei, der da|kommt, ho- si-|an- na ho- si-|an- na, ho- si-|
 d2 B2 c2 A2 B8 | B8 z8 || z16 | B4 c4 d4 B4 | z8 z4 c2 A2 | f2 d2 e2 c2 d2 B2 c2 A2 | %25
w: an- na in der Hö-|he,||ho- si- an- na,|ho- si-|an- na, in der Hö- he, ho- si-|
 B2 G2 A2 f2 (e4 d4) | c8 |] %27
w: an- na in der Hö- *|he!|
V:7
 x16 | x16 | A4 E4 A4 E2 E2 | E4 C2 C2 F4 E4 | E4 x4 x8 | E4 (D2 C2) D4 C4 | x16 | A4 G2 A2 E4 E4 | %8
 x8 x4 x2 A2 | G4 G2 G2 G4 F4 | G4 x4 x4 A2 A2 | G4 F4 E2 E2 ^D4 | E4 x4 x8 | x16 | %14
 x4 A2 G2 A4 E2 B2 | A4 A2 G2 A4 A4 | G4 x4 x4 G2 G2 | A4 G4 x4 G2 G2 | A4 G4 x4 E2 E2 | %19
 B2 G2 A2 A2 (G4 F4) | G8 x8 || x16 | G4 A4 B4 G4 | x8 x4 A2 c2 | d2 B2 c2 A2 B2 G2 E2 C2 | %25
 E2 E2 E2 A2 (A4 G4) | A8 |] %27
V:8
 z16 | z16 | A,4 E,4 A,4 E,2 G,2 | A,4 A,2 A,2 A,4 G,4 | E,4 z4 z8 | A,4 (G,2 A,2) G,4 A,4 | z16 | %7
 C4 (B,2 A,2) G,4 A,4 | z8 z4 z2 F2 | E4 E2 E2 E4 ^D4 | E4 z4 z4 F2 F2 | E4 C4 B,2 B,2 A,4 | %12
 G,4 z4 z8 | z16 | z4 A,2 G,2 A,4 E,2 E2 | E4 C2 E2 E4 F4 | B,4 z4 z4 B,2 B,2 | C4 B,4 z4 B,2 B,2 | %18
 C4 B,4 z4 E2 E2 | E2 E2 E2 C2 B,8 | B,8 z8 || z16 | E4 E4 D4 E4 | z8 z4 E2 E2 | %24
 F2 F2 E2 E2 E2 E2 A,2 A,2 | G,2 B,2 C2 =C2 (B,4 E4) | E8 |] %27
V:9
 x16 | x16 | A,4 E,4 A,4 E,2 D,2 | C,4 A,,2 F,2 D,4 E,4 | A,,4 x4 x8 | A,4 A,,4 E,4 A,,4 | x16 | %7
 A,4 A,,4 E,4 A,,4 | x8 x4 x2 B,,2 | E,4 E,2 E,2 G,,4 B,,4 | E,4 x4 x4 B,,2 B,,2 | %11
 E,4 A,,4 B,,2 B,,2 B,,4 | E,4 x4 x8 | x16 | x4 A,2 G,2 A,4 E,2 G,2 | A,4 A,,2 E,2 A,4 F,4 | %16
 E,4 x4 x4 E,2 E,2 | E,4 E,4 x4 E,2 E,2 | E,4 E,4 x4 E,2 E,2 | G,2 E,2 A,2 A,,2 (E,4 B,,4) | %20
 E,8 x4 x4 || x16 | E,4 C,4 B,,4 E,4 | x8 x4 A,,2 A,,2 | D,2 D,2 A,,2 A,2 E,2 E,2 A,2 A,,2 | %25
 E,2 E,2 A,,2 ^D,2 !fermata!E,8 | !fermata!A,,8 |] %27

